X:95
T:New Claret. RH.095
R:Slip Jig
S:Rev.R.Harrison’s MS,c1815,Cumbria
O:England
A:Temple Sowerby,Cumbria
Z:vmp.Simon Wilson. Review PJH, 2008.
M:9/8
L:1/8
Q:3/8=120
K:G
|:G2G B2G (B/c/d).B|GAG B2G (B/c/d).B|\
E2E C2C (E/F/G).E|DED F2D (F/G/A).F:|!
|:G2G g2d B/c/dB|GAG g2d (B/c/d).B|\
c2c e2c (e/f/g).e|ded f2d (f/g/a).f:|!
|:gdB GAB gdB|gdB GAG gdB|\
c2e ece e/f/ge|a/g/f/e/d f2d f/g/af:|

